X: 23035
T: Last Orders
R: reel
M: 4/4
K: Gmajor
d3e d~B3|GABG ABGE|EDB,D G,DB,D|(3EFG AG FDEG|
EDB,D G,DB,D|GA (3Bcd fggf|ecc2 dBAG|1 (3EFG AB cege:|2 (3EFG AF GA(3Bcd||
e3g f~B3|Bcce dBAG|(3EFG FA GABd|gabg agfg|
e2ge f~B3|Bcce d~g3|gedc AB2B|cAFA GA (3Bcd|
efge f~B3|Bcce dBAG|(3EFG FA GABd|gabg a2ga|
bgag dege|dBAB G~E3|DEGA (3Bcd eB|dBAB GABc||

